; generated by PrusaSlicer 2.1.1 on 2022-06-01 at 05:25:44 UTC

; 

; external perimeters extrusion width = 0.45mm
; perimeters extrusion width = 0.45mm
; infill extrusion width = 0.45mm
; solid infill extrusion width = 0.45mm
; top infill extrusion width = 0.40mm
; first layer extrusion width = 0.42mm

M201 X500 Y500 Z100 E5000 ; sets maximum accelerations, mm/sec^2
M203 X500 Y500 Z10 E60 ; sets maximum feedrates, mm/sec
M204 P500 R1000 T500 ; sets acceleration (P, T) and retract acceleration (R), mm/sec^2
M205 X8.00 Y8.00 Z0.40 E5.00 ; sets the jerk limits, mm/sec
M205 S0 T0 ; sets the minimum extruding and travel feed rate, mm/sec
M107
G90 ; use absolute coordinates
M83 ; extruder relative mode
M104 S250 ; set extruder temp
M140 S70 ; set bed temp
M190 S70 ; wait for bed temp
M109 S250 ; wait for extruder temp
G28 ; home all
G1 Z2 F240
G1 X2 Y10 F3000
G1 Z0.28 F240
G92 E0.0
G1 Y190 E15.0 F1500.0 ; intro line
G1 X2.3 F5000
G1 Y10 E30 F1200.0 ; intro line
G92 E0.0
G21 ; set units to millimeters
G90 ; use absolute coordinates
M83 ; use relative distances for extrusion
; Filament gcode
;BEFORE_LAYER_CHANGE
;0.2


G1 E-5.00000 F3600.00000
G1 Z0.200 F9000.000
;AFTER_LAYER_CHANGE
;0.2
G1 X45.727 Y59.869
G1 E5.00000 F2400.00000
G1 F1200
G1 X46.303 Y58.966 E0.03356
G1 X46.741 Y58.581 E0.01831
G1 X47.251 Y58.288 E0.01844
G1 X47.809 Y58.102 E0.01844
G1 X48.389 Y58.031 E0.01831
G1 X88.460 Y58.030 E1.25639
G1 X173.034 Y60.652 E2.65304
G1 X173.764 Y60.771 E0.02319
G1 X174.441 Y61.068 E0.02319
G1 X175.023 Y61.525 E0.02319
G1 X175.475 Y62.116 E0.02332
G1 X175.763 Y62.797 E0.02319
G1 X175.872 Y63.533 E0.02332
G1 X175.872 Y108.619 E1.41362
G1 X175.762 Y109.393 E0.02451
G1 X175.454 Y110.106 E0.02438
G1 X175.000 Y110.685 E0.02306
G1 X174.420 Y111.131 E0.02293
G1 X173.744 Y111.421 E0.02306
G1 X173.017 Y111.535 E0.02306
G1 X127.773 Y111.532 E1.41861
G1 X48.153 Y103.900 E2.50786
G1 X47.237 Y103.652 E0.02977
G1 X46.451 Y103.127 E0.02964
G1 X46.055 Y102.675 E0.01884
G1 X45.759 Y102.152 E0.01884
G1 X45.576 Y101.580 E0.01884
G1 X45.513 Y100.983 E0.01884
G1 X45.513 Y60.918 E1.25621
G1 X45.715 Y59.928 E0.03168
G1 X46.078 Y60.008 F9000.000
G1 F1200
G1 X46.585 Y59.216 E0.02949
G1 X46.970 Y58.881 E0.01598
G1 X47.416 Y58.627 E0.01610
G1 X47.900 Y58.468 E0.01598
G1 X48.406 Y58.408 E0.01598
G1 X88.459 Y58.407 E1.25584
G1 X173.017 Y61.029 E2.65253
G1 X173.652 Y61.131 E0.02017
G1 X174.242 Y61.389 E0.02017
G1 X174.752 Y61.787 E0.02029
G1 X175.148 Y62.304 E0.02042
G1 X175.401 Y62.904 E0.02042
G1 X175.495 Y63.545 E0.02029
G1 X175.495 Y108.613 E1.41309
G1 X175.401 Y109.281 E0.02116
G1 X175.135 Y109.905 E0.02128
G1 X174.739 Y110.412 E0.02017
G1 X174.226 Y110.807 E0.02029
G1 X173.634 Y111.060 E0.02017
G1 X172.999 Y111.158 E0.02017
G1 X127.787 Y111.155 E1.41757
G1 X48.195 Y103.525 E2.50701
G1 X47.389 Y103.306 E0.02619
G1 X46.699 Y102.843 E0.02606
G1 X46.357 Y102.449 E0.01635
G1 X46.102 Y101.994 E0.01635
G1 X45.944 Y101.497 E0.01635
G1 X45.890 Y100.979 E0.01635
G1 X45.890 Y60.929 E1.25572
G1 X46.066 Y60.067 E0.02761
G1 X47.573 Y58.970 F9000.000
G1 F1200
G1 X48.420 Y58.785 E0.02721
G1 X88.459 Y58.784 E1.25539
G1 X173.005 Y61.406 E2.65215
G1 X173.541 Y61.492 E0.01703
G1 X174.040 Y61.707 E0.01703
G1 X174.481 Y62.049 E0.01749
G1 X174.820 Y62.491 E0.01749
G1 X175.038 Y63.005 E0.01749
G1 X175.118 Y63.557 E0.01749
G1 X175.118 Y108.608 E1.41255
G1 X175.040 Y109.175 E0.01794
G1 X174.815 Y109.705 E0.01805
G1 X174.475 Y110.143 E0.01737
G1 X174.037 Y110.481 E0.01737
G1 X173.527 Y110.699 E0.01737
G1 X172.979 Y110.781 E0.01737
G1 X127.809 Y110.778 E1.41628
G1 X48.235 Y103.150 E2.50641
G1 X47.544 Y102.963 E0.02247
G1 X46.950 Y102.561 E0.02247
G1 X46.445 Y101.838 E0.02766
G1 X46.267 Y100.978 E0.02754
G1 X46.267 Y60.940 E1.25536
G1 X46.428 Y60.149 E0.02529
G1 X46.866 Y59.468 E0.02541
G1 X47.524 Y59.005 E0.02521
G1 E-3.50000 F3600.00000
G1 F7200
G1 X48.420 Y58.785 E-0.43857
G1 X50.497 Y58.785 E-0.98642
G1 E-0.07500 F3600.00000
G1 X51.174 Y63.691 F9000.000
G1 E5.00000 F2400.00000
G1 F1200
G1 X85.737 Y63.691 E1.08371
G1 X85.737 Y98.255 E1.08371
G1 X51.174 Y98.255 E1.08371
G1 X51.174 Y63.751 E1.08183
G1 X50.797 Y63.314 F9000.000
G1 F1200
G1 X86.114 Y63.314 E1.10736
G1 X86.114 Y98.632 E1.10736
G1 X50.797 Y98.632 E1.10736
G1 X50.797 Y63.374 E1.10548
G1 X50.419 Y62.937 F9000.000
G1 F1200
G1 X86.491 Y62.937 E1.13100
G1 X86.491 Y99.009 E1.13100
G1 X50.419 Y99.009 E1.13100
G1 X50.419 Y62.997 E1.12912
G1 X50.042 Y62.560 F9000.000
G1 F1200
G1 X86.868 Y62.560 E1.15465
G1 X86.868 Y99.386 E1.15465
G1 X50.042 Y99.386 E1.15465
G1 X50.042 Y62.620 E1.15277
G1 X49.665 Y62.183 F9000.000
G1 F1200
G1 X87.245 Y62.183 E1.17829
G1 X87.245 Y99.763 E1.17829
G1 X49.665 Y99.763 E1.17829
G1 X49.665 Y62.243 E1.17641
G1 X50.052 Y62.286 F9000.000
G1 E-3.50000 F3600.00000
G1 F7200
G1 X52.665 Y62.238 E-1.42500
G1 E-0.07500 F3600.00000
G1 X52.055 Y98.141 F9000.000
G1 E5.00000 F2400.00000
G1 F1200
G1 X51.456 Y97.543 E0.02672
G1 X51.456 Y97.006 E0.01696
G1 X52.422 Y97.972 E0.04313
G1 X52.959 Y97.972 E0.01696
G1 X51.456 Y96.469 E0.06711
G1 X51.456 Y95.932 E0.01696
G1 X53.496 Y97.972 E0.09110
G1 X54.033 Y97.972 E0.01696
G1 X51.456 Y95.395 E0.11509
G1 X51.456 Y94.858 E0.01696
G1 X54.570 Y97.972 E0.13908
G1 X55.108 Y97.972 E0.01696
G1 X51.456 Y94.321 E0.16307
G1 X51.456 Y93.783 E0.01696
G1 X55.645 Y97.972 E0.18705
G1 X56.182 Y97.972 E0.01696
G1 X51.456 Y93.246 E0.21104
G1 X51.456 Y92.709 E0.01696
G1 X56.719 Y97.972 E0.23503
G1 X57.256 Y97.972 E0.01696
G1 X51.456 Y92.172 E0.25902
G1 X51.456 Y91.635 E0.01696
G1 X57.793 Y97.972 E0.28300
G1 X58.330 Y97.972 E0.01696
G1 X51.456 Y91.098 E0.30699
G1 X51.456 Y90.561 E0.01696
G1 X58.867 Y97.972 E0.33098
G1 X59.404 Y97.972 E0.01696
G1 X51.456 Y90.024 E0.35497
G1 X51.456 Y89.487 E0.01696
G1 X59.942 Y97.972 E0.37895
G1 X60.479 Y97.972 E0.01696
G1 X51.456 Y88.950 E0.40294
G1 X51.456 Y88.412 E0.01696
G1 X61.016 Y97.972 E0.42693
G1 X61.553 Y97.972 E0.01696
G1 X51.456 Y87.875 E0.45092
G1 X51.456 Y87.338 E0.01696
G1 X62.090 Y97.972 E0.47490
G1 X62.627 Y97.972 E0.01696
G1 X51.456 Y86.801 E0.49889
G1 X51.456 Y86.264 E0.01696
G1 X63.164 Y97.972 E0.52288
G1 X63.701 Y97.972 E0.01696
G1 X51.456 Y85.727 E0.54687
G1 X51.456 Y85.190 E0.01696
G1 X64.238 Y97.972 E0.57085
G1 X64.776 Y97.972 E0.01696
G1 X51.456 Y84.653 E0.59484
G1 X51.456 Y84.116 E0.01696
G1 X65.313 Y97.972 E0.61883
G1 X65.850 Y97.972 E0.01696
G1 X51.456 Y83.578 E0.64282
G1 X51.456 Y83.041 E0.01696
G1 X66.387 Y97.972 E0.66680
G1 X66.924 Y97.972 E0.01696
G1 X51.456 Y82.504 E0.69079
G1 X51.456 Y81.967 E0.01696
G1 X67.461 Y97.972 E0.71478
G1 X67.998 Y97.972 E0.01696
G1 X51.456 Y81.430 E0.73877
G1 X51.456 Y80.893 E0.01696
G1 X68.535 Y97.972 E0.76275
G1 X69.072 Y97.972 E0.01696
G1 X51.456 Y80.356 E0.78674
G1 X51.456 Y79.819 E0.01696
G1 X69.609 Y97.972 E0.81073
G1 X70.147 Y97.972 E0.01696
G1 X51.456 Y79.282 E0.83472
G1 X51.456 Y78.744 E0.01696
G1 X70.684 Y97.972 E0.85870
G1 X71.221 Y97.972 E0.01696
G1 X51.456 Y78.207 E0.88269
G1 X51.456 Y77.670 E0.01696
G1 X71.758 Y97.972 E0.90668
G1 X72.295 Y97.972 E0.01696
G1 X51.456 Y77.133 E0.93067
G1 X51.456 Y76.596 E0.01696
G1 X72.832 Y97.972 E0.95465
G1 X73.369 Y97.972 E0.01696
G1 X51.456 Y76.059 E0.97864
G1 X51.456 Y75.522 E0.01696
G1 X73.906 Y97.972 E1.00263
G1 X74.443 Y97.972 E0.01696
G1 X51.456 Y74.985 E1.02662
G1 X51.456 Y74.448 E0.01696
G1 X74.981 Y97.972 E1.05060
G1 X75.518 Y97.972 E0.01696
G1 X51.456 Y73.911 E1.07459
G1 X51.456 Y73.373 E0.01696
G1 X76.055 Y97.972 E1.09858
G1 X76.592 Y97.972 E0.01696
G1 X51.456 Y72.836 E1.12257
G1 X51.456 Y72.299 E0.01696
G1 X77.129 Y97.972 E1.14655
G1 X77.666 Y97.972 E0.01696
G1 X51.456 Y71.762 E1.17054
G1 X51.456 Y71.225 E0.01696
G1 X78.203 Y97.972 E1.19453
G1 X78.740 Y97.972 E0.01696
G1 X51.456 Y70.688 E1.21852
G1 X51.456 Y70.151 E0.01696
G1 X79.277 Y97.972 E1.24250
G1 X79.815 Y97.972 E0.01696
G1 X51.456 Y69.614 E1.26649
G1 X51.456 Y69.077 E0.01696
G1 X80.352 Y97.972 E1.29048
G1 X80.889 Y97.972 E0.01696
G1 X51.456 Y68.539 E1.31447
G1 X51.456 Y68.002 E0.01696
G1 X81.426 Y97.972 E1.33845
G1 X81.963 Y97.972 E0.01696
G1 X51.456 Y67.465 E1.36244
G1 X51.456 Y66.928 E0.01696
G1 X82.500 Y97.972 E1.38643
G1 X83.037 Y97.972 E0.01696
G1 X51.456 Y66.391 E1.41042
G1 X51.456 Y65.854 E0.01696
G1 X83.574 Y97.972 E1.43440
G1 X84.111 Y97.972 E0.01696
G1 X51.456 Y65.317 E1.45839
G1 X51.456 Y64.780 E0.01696
G1 X84.648 Y97.972 E1.48238
G1 X85.186 Y97.972 E0.01696
G1 X51.456 Y64.243 E1.50637
G1 X51.456 Y63.974 E0.00848
G1 X51.725 Y63.974 E0.00848
G1 X85.454 Y97.703 E1.50637
G1 X85.454 Y97.166 E0.01696
G1 X52.262 Y63.974 E1.48238
G1 X52.799 Y63.974 E0.01696
G1 X85.454 Y96.629 E1.45840
G1 X85.454 Y96.092 E0.01696
G1 X53.336 Y63.974 E1.43441
G1 X53.873 Y63.974 E0.01696
G1 X85.454 Y95.555 E1.41042
G1 X85.454 Y95.018 E0.01696
G1 X54.410 Y63.974 E1.38643
G1 X54.948 Y63.974 E0.01696
G1 X85.454 Y94.481 E1.36245
G1 X85.454 Y93.944 E0.01696
G1 X55.485 Y63.974 E1.33846
G1 X56.022 Y63.974 E0.01696
G1 X85.454 Y93.406 E1.31447
G1 X85.454 Y92.869 E0.01696
G1 X56.559 Y63.974 E1.29048
G1 X57.096 Y63.974 E0.01696
G1 X85.454 Y92.332 E1.26650
G1 X85.454 Y91.795 E0.01696
G1 X57.633 Y63.974 E1.24251
G1 X58.170 Y63.974 E0.01696
G1 X85.454 Y91.258 E1.21852
G1 X85.454 Y90.721 E0.01696
G1 X58.707 Y63.974 E1.19453
G1 X59.244 Y63.974 E0.01696
G1 X85.454 Y90.184 E1.17055
G1 X85.454 Y89.647 E0.01696
G1 X59.782 Y63.974 E1.14656
G1 X60.319 Y63.974 E0.01696
G1 X85.454 Y89.110 E1.12257
G1 X85.454 Y88.572 E0.01696
G1 X60.856 Y63.974 E1.09858
G1 X61.393 Y63.974 E0.01696
G1 X85.454 Y88.035 E1.07460
G1 X85.454 Y87.498 E0.01696
G1 X61.930 Y63.974 E1.05061
G1 X62.467 Y63.974 E0.01696
G1 X85.454 Y86.961 E1.02662
G1 X85.454 Y86.424 E0.01696
G1 X63.004 Y63.974 E1.00263
G1 X63.541 Y63.974 E0.01696
G1 X85.454 Y85.887 E0.97865
G1 X85.454 Y85.350 E0.01696
G1 X64.078 Y63.974 E0.95466
G1 X64.615 Y63.974 E0.01696
G1 X85.454 Y84.813 E0.93067
G1 X85.454 Y84.276 E0.01696
G1 X65.153 Y63.974 E0.90668
G1 X65.690 Y63.974 E0.01696
G1 X85.454 Y83.738 E0.88270
G1 X85.454 Y83.201 E0.01696
G1 X66.227 Y63.974 E0.85871
G1 X66.764 Y63.974 E0.01696
G1 X85.454 Y82.664 E0.83472
G1 X85.454 Y82.127 E0.01696
G1 X67.301 Y63.974 E0.81073
G1 X67.838 Y63.974 E0.01696
G1 X85.454 Y81.590 E0.78675
G1 X85.454 Y81.053 E0.01696
G1 X68.375 Y63.974 E0.76276
G1 X68.912 Y63.974 E0.01696
G1 X85.454 Y80.516 E0.73877
G1 X85.454 Y79.979 E0.01696
G1 X69.449 Y63.974 E0.71478
G1 X69.987 Y63.974 E0.01696
G1 X85.454 Y79.442 E0.69079
G1 X85.454 Y78.905 E0.01696
G1 X70.524 Y63.974 E0.66681
G1 X71.061 Y63.974 E0.01696
G1 X85.454 Y78.367 E0.64282
G1 X85.454 Y77.830 E0.01696
G1 X71.598 Y63.974 E0.61883
G1 X72.135 Y63.974 E0.01696
G1 X85.454 Y77.293 E0.59484
G1 X85.454 Y76.756 E0.01696
G1 X72.672 Y63.974 E0.57086
G1 X73.209 Y63.974 E0.01696
G1 X85.454 Y76.219 E0.54687
G1 X85.454 Y75.682 E0.01696
G1 X73.746 Y63.974 E0.52288
G1 X74.283 Y63.974 E0.01696
G1 X85.454 Y75.145 E0.49889
G1 X85.454 Y74.608 E0.01696
G1 X74.821 Y63.974 E0.47491
G1 X75.358 Y63.974 E0.01696
G1 X85.454 Y74.071 E0.45092
G1 X85.454 Y73.533 E0.01696
G1 X75.895 Y63.974 E0.42693
G1 X76.432 Y63.974 E0.01696
G1 X85.454 Y72.996 E0.40294
G1 X85.454 Y72.459 E0.01696
G1 X76.969 Y63.974 E0.37896
G1 X77.506 Y63.974 E0.01696
G1 X85.454 Y71.922 E0.35497
G1 X85.454 Y71.385 E0.01696
G1 X78.043 Y63.974 E0.33098
G1 X78.580 Y63.974 E0.01696
G1 X85.454 Y70.848 E0.30699
G1 X85.454 Y70.311 E0.01696
G1 X79.117 Y63.974 E0.28301
G1 X79.654 Y63.974 E0.01696
G1 X85.454 Y69.774 E0.25902
G1 X85.454 Y69.237 E0.01696
G1 X80.192 Y63.974 E0.23503
G1 X80.729 Y63.974 E0.01696
G1 X85.454 Y68.699 E0.21104
G1 X85.454 Y68.162 E0.01696
G1 X81.266 Y63.974 E0.18706
G1 X81.803 Y63.974 E0.01696
G1 X85.454 Y67.625 E0.16307
G1 X85.454 Y67.088 E0.01696
G1 X82.340 Y63.974 E0.13908
G1 X82.877 Y63.974 E0.01696
G1 X85.454 Y66.551 E0.11509
G1 X85.454 Y66.014 E0.01696
G1 X83.414 Y63.974 E0.09111
G1 X83.951 Y63.974 E0.01696
G1 X85.454 Y65.477 E0.06712
G1 X85.454 Y64.940 E0.01696
G1 X84.488 Y63.974 E0.04313
G1 X85.026 Y63.974 E0.01696
G1 X85.624 Y64.572 E0.02672
G1 E-3.50000 F3600.00000
G1 F7200
G1 X85.026 Y63.974 E-0.40194
G1 X84.488 Y63.974 E-0.25513
G1 X85.454 Y64.940 E-0.64875
G1 X85.454 Y65.191 E-0.11919
G1 E-0.07500 F3600.00000
G1 X130.648 Y66.312 F9000.000
G1 E5.00000 F2400.00000
G1 F1200
G1 X170.211 Y66.312 E1.24048
G1 X170.211 Y105.875 E1.24048
G1 X130.648 Y105.875 E1.24048
G1 X130.648 Y66.372 E1.23860
G1 X130.271 Y65.934 F9000.000
G1 F1200
G1 X170.588 Y65.934 E1.26413
G1 X170.588 Y106.252 E1.26413
G1 X130.271 Y106.252 E1.26413
G1 X130.271 Y65.994 E1.26225
G1 X129.894 Y65.557 F9000.000
G1 F1200
G1 X170.966 Y65.557 E1.28777
G1 X170.966 Y106.629 E1.28777
G1 X129.894 Y106.629 E1.28777
G1 X129.894 Y65.617 E1.28589
G1 X129.517 Y65.180 F9000.000
G1 F1200
G1 X171.343 Y65.180 E1.31142
G1 X171.343 Y107.006 E1.31142
G1 X129.517 Y107.006 E1.31142
G1 X129.517 Y65.240 E1.30954
G1 X129.140 Y64.803 F9000.000
G1 F1200
G1 X171.720 Y64.803 E1.33507
G1 X171.720 Y107.383 E1.33507
G1 X129.140 Y107.383 E1.33507
G1 X129.140 Y64.863 E1.33318
G1 X129.526 Y64.907 F9000.000
G1 E-3.50000 F3600.00000
G1 F7200
G1 X132.140 Y64.859 E-1.42500
G1 E-0.07500 F3600.00000
G1 X130.761 Y104.996 F9000.000
G1 E5.00000 F2400.00000
G1 F1200
G1 X131.357 Y105.592 E0.02656
G1 X131.893 Y105.592 E0.01687
G1 X130.931 Y104.630 E0.04287
G1 X130.931 Y104.094 E0.01687
G1 X132.429 Y105.592 E0.06673
G1 X132.965 Y105.592 E0.01687
G1 X130.931 Y103.558 E0.09059
G1 X130.931 Y103.023 E0.01687
G1 X133.500 Y105.592 E0.11446
G1 X134.036 Y105.592 E0.01687
G1 X130.931 Y102.487 E0.13832
G1 X130.931 Y101.951 E0.01687
G1 X134.572 Y105.592 E0.16218
G1 X135.107 Y105.592 E0.01687
G1 X130.931 Y101.416 E0.18604
G1 X130.931 Y100.880 E0.01687
G1 X135.643 Y105.592 E0.20991
G1 X136.179 Y105.592 E0.01687
G1 X130.931 Y100.344 E0.23377
G1 X130.931 Y99.808 E0.01687
G1 X136.715 Y105.592 E0.25763
G1 X137.250 Y105.592 E0.01687
G1 X130.931 Y99.273 E0.28150
G1 X130.931 Y98.737 E0.01687
G1 X137.786 Y105.592 E0.30536
G1 X138.322 Y105.592 E0.01687
G1 X130.931 Y98.201 E0.32922
G1 X130.931 Y97.666 E0.01687
G1 X138.857 Y105.592 E0.35309
G1 X139.393 Y105.592 E0.01687
G1 X130.931 Y97.130 E0.37695
G1 X130.931 Y96.594 E0.01687
G1 X139.929 Y105.592 E0.40081
G1 X140.465 Y105.592 E0.01687
G1 X130.931 Y96.058 E0.42467
G1 X130.931 Y95.523 E0.01687
G1 X141.000 Y105.592 E0.44854
G1 X141.536 Y105.592 E0.01687
G1 X130.931 Y94.987 E0.47240
G1 X130.931 Y94.451 E0.01687
G1 X142.072 Y105.592 E0.49626
G1 X142.607 Y105.592 E0.01687
G1 X130.931 Y93.916 E0.52013
G1 X130.931 Y93.380 E0.01687
G1 X143.143 Y105.592 E0.54399
G1 X143.679 Y105.592 E0.01687
G1 X130.931 Y92.844 E0.56785
G1 X130.931 Y92.308 E0.01687
G1 X144.215 Y105.592 E0.59172
G1 X144.750 Y105.592 E0.01687
G1 X130.931 Y91.773 E0.61558
G1 X130.931 Y91.237 E0.01687
G1 X145.286 Y105.592 E0.63944
G1 X145.822 Y105.592 E0.01687
G1 X130.931 Y90.701 E0.66331
G1 X130.931 Y90.166 E0.01687
G1 X146.357 Y105.592 E0.68717
G1 X146.893 Y105.592 E0.01687
G1 X130.931 Y89.630 E0.71103
G1 X130.931 Y89.094 E0.01687
G1 X147.429 Y105.592 E0.73489
G1 X147.964 Y105.592 E0.01687
G1 X130.931 Y88.558 E0.75876
G1 X130.931 Y88.023 E0.01687
G1 X148.500 Y105.592 E0.78262
G1 X149.036 Y105.592 E0.01687
G1 X130.931 Y87.487 E0.80648
G1 X130.931 Y86.951 E0.01687
G1 X149.572 Y105.592 E0.83035
G1 X150.107 Y105.592 E0.01687
G1 X130.931 Y86.416 E0.85421
G1 X130.931 Y85.880 E0.01687
G1 X150.643 Y105.592 E0.87807
G1 X151.179 Y105.592 E0.01687
G1 X130.931 Y85.344 E0.90194
G1 X130.931 Y84.809 E0.01687
G1 X151.714 Y105.592 E0.92580
G1 X152.250 Y105.592 E0.01687
G1 X130.931 Y84.273 E0.94966
G1 X130.931 Y83.737 E0.01687
G1 X152.786 Y105.592 E0.97352
G1 X153.322 Y105.592 E0.01687
G1 X130.931 Y83.201 E0.99739
G1 X130.931 Y82.666 E0.01687
G1 X153.857 Y105.592 E1.02125
G1 X154.393 Y105.592 E0.01687
G1 X130.931 Y82.130 E1.04511
G1 X130.931 Y81.594 E0.01687
G1 X154.929 Y105.592 E1.06898
G1 X155.464 Y105.592 E0.01687
G1 X130.931 Y81.059 E1.09284
G1 X130.931 Y80.523 E0.01687
G1 X156.000 Y105.592 E1.11670
G1 X156.536 Y105.592 E0.01687
G1 X130.931 Y79.987 E1.14057
G1 X130.931 Y79.451 E0.01687
G1 X157.072 Y105.592 E1.16443
