; generated by PrusaSlicer 2.1.1 on 2022-05-31 at 09:09:55 UTC

; 

; external perimeters extrusion width = 0.45mm
; perimeters extrusion width = 0.45mm
; infill extrusion width = 0.45mm
; solid infill extrusion width = 0.45mm
; top infill extrusion width = 0.40mm
; first layer extrusion width = 0.42mm

M201 X500 Y500 Z100 E5000 ; sets maximum accelerations, mm/sec^2
M203 X500 Y500 Z10 E60 ; sets maximum feedrates, mm/sec
M204 P500 R1000 T500 ; sets acceleration (P, T) and retract acceleration (R), mm/sec^2
M205 X8.00 Y8.00 Z0.40 E5.00 ; sets the jerk limits, mm/sec
M205 S0 T0 ; sets the minimum extruding and travel feed rate, mm/sec
M107
G90 ; use absolute coordinates
M83 ; extruder relative mode
M104 S250 ; set extruder temp
M140 S70 ; set bed temp
M190 S70 ; wait for bed temp
M109 S250 ; wait for extruder temp
G28 ; home all
G1 Z2 F240
G1 X2 Y10 F3000
G1 Z0.28 F240
G92 E0.0
G1 Y190 E15.0 F1500.0 ; intro line
G1 X2.3 F5000
G1 Y10 E30 F1200.0 ; intro line
G92 E0.0
G21 ; set units to millimeters
G90 ; use absolute coordinates
M83 ; use relative distances for extrusion
; Filament gcode
;BEFORE_LAYER_CHANGE
;0.2


G1 E-5.00000 F3600.00000
G1 Z0.200 F9000.000
;AFTER_LAYER_CHANGE
;0.2
G1 X36.598 Y52.218
G1 E5.00000 F2400.00000
G1 F1200
G1 X37.519 Y52.025 E0.02951
G1 X112.982 Y48.695 E2.36840
G1 X158.069 Y48.694 E1.41368
G1 X158.634 Y48.749 E0.01778
G1 X159.177 Y48.912 E0.01778
G1 X159.679 Y49.176 E0.01778
G1 X160.124 Y49.534 E0.01791
G1 X160.489 Y49.968 E0.01778
G1 X160.766 Y50.467 E0.01791
G1 X160.941 Y51.011 E0.01791
G1 X161.007 Y51.574 E0.01778
G1 X161.006 Y96.751 E1.41648
G1 X160.849 Y97.590 E0.02675
G1 X160.459 Y98.348 E0.02675
G1 X159.867 Y98.963 E0.02675
G1 X159.121 Y99.383 E0.02688
G1 X158.077 Y99.579 E0.03330
G1 X113.027 Y99.579 E1.41250
G1 X37.575 Y97.906 E2.36632
G1 X36.723 Y97.756 E0.02714
G1 X35.954 Y97.367 E0.02701
G1 X35.329 Y96.769 E0.02714
G1 X34.906 Y96.018 E0.02701
G1 X34.710 Y94.978 E0.03317
G1 X34.713 Y54.850 E1.25820
G1 X34.869 Y54.011 E0.02675
G1 X35.259 Y53.253 E0.02675
G1 X35.851 Y52.638 E0.02675
G1 X36.546 Y52.247 E0.02500
G1 X36.728 Y52.573 F9000.000
G1 F1200
G1 X37.537 Y52.401 E0.02591
G1 X112.992 Y49.072 E2.36814
G1 X158.069 Y49.071 E1.41337
G1 X159.038 Y49.262 E0.03095
G1 X159.862 Y49.805 E0.03095
G1 X160.422 Y50.623 E0.03107
G1 X160.630 Y51.587 E0.03095
G1 X160.629 Y96.728 E1.41534
G1 X160.494 Y97.464 E0.02349
G1 X160.151 Y98.131 E0.02349
G1 X159.634 Y98.667 E0.02337
G1 X158.980 Y99.033 E0.02349
G1 X158.075 Y99.202 E0.02888
G1 X113.034 Y99.202 E1.41224
G1 X37.588 Y97.529 E2.36611
G1 X36.843 Y97.399 E0.02374
G1 X36.171 Y97.059 E0.02361
G1 X35.627 Y96.538 E0.02361
G1 X35.256 Y95.878 E0.02374
G1 X35.088 Y94.976 E0.02875
G1 X35.089 Y54.877 E1.25728
G1 X35.223 Y54.140 E0.02349
G1 X35.565 Y53.474 E0.02349
G1 X36.085 Y52.934 E0.02349
G1 X36.676 Y52.602 E0.02126
G1 X36.858 Y52.929 F9000.000
G1 F1200
G1 X37.552 Y52.778 E0.02227
G1 X113.002 Y49.449 E2.36796
G1 X158.069 Y49.448 E1.41305
G1 X158.895 Y49.612 E0.02642
G1 X159.602 Y50.078 E0.02653
G1 X160.077 Y50.774 E0.02642
G1 X160.253 Y51.601 E0.02653
G1 X160.253 Y96.702 E1.41411
G1 X160.139 Y97.337 E0.02021
G1 X159.847 Y97.907 E0.02010
G1 X159.399 Y98.371 E0.02021
G1 X158.840 Y98.683 E0.02010
G1 X158.071 Y98.825 E0.02451
G1 X113.036 Y98.825 E1.41204
G1 X37.601 Y97.152 E2.36579
G1 X36.966 Y97.042 E0.02021
G1 X36.387 Y96.750 E0.02032
G1 X35.920 Y96.301 E0.02032
G1 X35.606 Y95.738 E0.02021
G1 X35.465 Y94.973 E0.02439
G1 X35.466 Y54.899 E1.25650
G1 X35.580 Y54.264 E0.02021
G1 X35.871 Y53.694 E0.02010
G1 X36.319 Y53.230 E0.02021
G1 X36.806 Y52.958 E0.01748
G1 E-3.50000 F3600.00000
G1 F7200
G1 X37.552 Y52.778 E-0.36475
G1 X39.782 Y52.680 E-1.06025
G1 E-0.07500 F3600.00000
G1 X40.371 Y57.683 F9000.000
G1 E5.00000 F2400.00000
G1 F1200
G1 X74.935 Y57.683 E1.08371
G1 X74.935 Y92.246 E1.08371
G1 X40.371 Y92.246 E1.08371
G1 X40.371 Y57.743 E1.08183
G1 X39.994 Y57.306 F9000.000
G1 F1200
G1 X75.312 Y57.306 E1.10736
G1 X75.312 Y92.623 E1.10736
G1 X39.994 Y92.623 E1.10736
G1 X39.994 Y57.366 E1.10548
G1 X39.617 Y56.929 F9000.000
G1 F1200
G1 X75.689 Y56.929 E1.13100
G1 X75.689 Y93.000 E1.13100
G1 X39.617 Y93.000 E1.13100
G1 X39.617 Y56.989 E1.12912
G1 X39.240 Y56.552 F9000.000
G1 F1200
G1 X76.066 Y56.552 E1.15465
G1 X76.066 Y93.377 E1.15465
G1 X39.240 Y93.377 E1.15465
G1 X39.240 Y56.612 E1.15277
G1 X38.863 Y56.174 F9000.000
G1 F1200
G1 X76.443 Y56.174 E1.17829
G1 X76.443 Y93.754 E1.17829
G1 X38.863 Y93.754 E1.17829
G1 X38.863 Y56.234 E1.17641
G1 X39.250 Y56.278 F9000.000
G1 E-3.50000 F3600.00000
G1 F7200
G1 X41.863 Y56.230 E-1.42500
G1 E-0.07500 F3600.00000
G1 X41.253 Y92.133 F9000.000
G1 E5.00000 F2400.00000
G1 F1200
G1 X40.654 Y91.535 E0.02672
G1 X40.654 Y90.998 E0.01696
G1 X41.620 Y91.963 E0.04313
G1 X42.157 Y91.963 E0.01696
G1 X40.654 Y90.461 E0.06711
G1 X40.654 Y89.923 E0.01696
G1 X42.694 Y91.963 E0.09110
G1 X43.231 Y91.963 E0.01696
G1 X40.654 Y89.386 E0.11509
G1 X40.654 Y88.849 E0.01696
G1 X43.768 Y91.963 E0.13908
G1 X44.305 Y91.963 E0.01696
G1 X40.654 Y88.312 E0.16306
G1 X40.654 Y87.775 E0.01696
G1 X44.843 Y91.963 E0.18705
G1 X45.380 Y91.963 E0.01696
G1 X40.654 Y87.238 E0.21104
G1 X40.654 Y86.701 E0.01696
G1 X45.917 Y91.963 E0.23503
G1 X46.454 Y91.963 E0.01696
G1 X40.654 Y86.164 E0.25902
G1 X40.654 Y85.627 E0.01696
G1 X46.991 Y91.963 E0.28300
G1 X47.528 Y91.963 E0.01696
G1 X40.654 Y85.089 E0.30699
G1 X40.654 Y84.552 E0.01696
G1 X48.065 Y91.963 E0.33098
G1 X48.602 Y91.963 E0.01696
G1 X40.654 Y84.015 E0.35497
G1 X40.654 Y83.478 E0.01696
G1 X49.139 Y91.963 E0.37895
G1 X49.677 Y91.963 E0.01696
G1 X40.654 Y82.941 E0.40294
G1 X40.654 Y82.404 E0.01696
G1 X50.214 Y91.963 E0.42693
G1 X50.751 Y91.963 E0.01696
G1 X40.654 Y81.867 E0.45092
G1 X40.654 Y81.330 E0.01696
G1 X51.288 Y91.963 E0.47490
G1 X51.825 Y91.963 E0.01696
G1 X40.654 Y80.793 E0.49889
G1 X40.654 Y80.256 E0.01696
G1 X52.362 Y91.963 E0.52288
G1 X52.899 Y91.963 E0.01696
G1 X40.654 Y79.718 E0.54687
G1 X40.654 Y79.181 E0.01696
G1 X53.436 Y91.963 E0.57085
G1 X53.973 Y91.963 E0.01696
G1 X40.654 Y78.644 E0.59484
G1 X40.654 Y78.107 E0.01696
G1 X54.510 Y91.963 E0.61883
G1 X55.048 Y91.963 E0.01696
G1 X40.654 Y77.570 E0.64282
G1 X40.654 Y77.033 E0.01696
G1 X55.585 Y91.963 E0.66680
G1 X56.122 Y91.963 E0.01696
G1 X40.654 Y76.496 E0.69079
G1 X40.654 Y75.959 E0.01696
G1 X56.659 Y91.963 E0.71478
G1 X57.196 Y91.963 E0.01696
G1 X40.654 Y75.422 E0.73877
G1 X40.654 Y74.884 E0.01696
G1 X57.733 Y91.963 E0.76275
G1 X58.270 Y91.963 E0.01696
G1 X40.654 Y74.347 E0.78674
G1 X40.654 Y73.810 E0.01696
G1 X58.807 Y91.963 E0.81073
G1 X59.344 Y91.963 E0.01696
G1 X40.654 Y73.273 E0.83472
G1 X40.654 Y72.736 E0.01696
G1 X59.882 Y91.963 E0.85870
G1 X60.419 Y91.963 E0.01696
G1 X40.654 Y72.199 E0.88269
G1 X40.654 Y71.662 E0.01696
G1 X60.956 Y91.963 E0.90668
G1 X61.493 Y91.963 E0.01696
G1 X40.654 Y71.125 E0.93067
G1 X40.654 Y70.588 E0.01696
G1 X62.030 Y91.963 E0.95465
G1 X62.567 Y91.963 E0.01696
G1 X40.654 Y70.051 E0.97864
G1 X40.654 Y69.513 E0.01696
G1 X63.104 Y91.963 E1.00263
G1 X63.641 Y91.963 E0.01696
G1 X40.654 Y68.976 E1.02662
G1 X40.654 Y68.439 E0.01696
G1 X64.178 Y91.963 E1.05060
G1 X64.716 Y91.963 E0.01696
G1 X40.654 Y67.902 E1.07459
G1 X40.654 Y67.365 E0.01696
G1 X65.253 Y91.963 E1.09858
G1 X65.790 Y91.963 E0.01696
G1 X40.654 Y66.828 E1.12257
G1 X40.654 Y66.291 E0.01696
G1 X66.327 Y91.963 E1.14655
G1 X66.864 Y91.963 E0.01696
G1 X40.654 Y65.754 E1.17054
G1 X40.654 Y65.217 E0.01696
G1 X67.401 Y91.963 E1.19453
G1 X67.938 Y91.963 E0.01696
G1 X40.654 Y64.679 E1.21852
G1 X40.654 Y64.142 E0.01696
G1 X68.475 Y91.963 E1.24250
G1 X69.012 Y91.963 E0.01696
G1 X40.654 Y63.605 E1.26649
G1 X40.654 Y63.068 E0.01696
G1 X69.549 Y91.963 E1.29048
G1 X70.087 Y91.963 E0.01696
G1 X40.654 Y62.531 E1.31447
G1 X40.654 Y61.994 E0.01696
G1 X70.624 Y91.963 E1.33845
G1 X71.161 Y91.963 E0.01696
G1 X40.654 Y61.457 E1.36244
G1 X40.654 Y60.920 E0.01696
G1 X71.698 Y91.963 E1.38643
G1 X72.235 Y91.963 E0.01696
G1 X40.654 Y60.383 E1.41042
G1 X40.654 Y59.845 E0.01696
G1 X72.772 Y91.963 E1.43440
G1 X73.309 Y91.963 E0.01696
G1 X40.654 Y59.308 E1.45839
G1 X40.654 Y58.771 E0.01696
G1 X73.846 Y91.963 E1.48238
G1 X74.383 Y91.963 E0.01696
G1 X40.654 Y58.234 E1.50637
G1 X40.654 Y57.966 E0.00848
G1 X40.923 Y57.966 E0.00848
G1 X74.652 Y91.695 E1.50637
G1 X74.652 Y91.158 E0.01696
G1 X41.460 Y57.966 E1.48238
G1 X41.997 Y57.966 E0.01696
G1 X74.652 Y90.621 E1.45840
G1 X74.652 Y90.084 E0.01696
G1 X42.534 Y57.966 E1.43441
G1 X43.071 Y57.966 E0.01696
G1 X74.652 Y89.546 E1.41042
G1 X74.652 Y89.009 E0.01696
G1 X43.608 Y57.966 E1.38643
G1 X44.145 Y57.966 E0.01696
G1 X74.652 Y88.472 E1.36245
G1 X74.652 Y87.935 E0.01696
G1 X44.683 Y57.966 E1.33846
G1 X45.220 Y57.966 E0.01696
G1 X74.652 Y87.398 E1.31447
G1 X74.652 Y86.861 E0.01696
G1 X45.757 Y57.966 E1.29048
G1 X46.294 Y57.966 E0.01696
G1 X74.652 Y86.324 E1.26650
G1 X74.652 Y85.787 E0.01696
G1 X46.831 Y57.966 E1.24251
G1 X47.368 Y57.966 E0.01696
G1 X74.652 Y85.250 E1.21852
G1 X74.652 Y84.712 E0.01696
G1 X47.905 Y57.966 E1.19453
G1 X48.442 Y57.966 E0.01696
G1 X74.652 Y84.175 E1.17055
G1 X74.652 Y83.638 E0.01696
G1 X48.979 Y57.966 E1.14656
G1 X49.516 Y57.966 E0.01696
G1 X74.652 Y83.101 E1.12257
G1 X74.652 Y82.564 E0.01696
G1 X50.054 Y57.966 E1.09858
G1 X50.591 Y57.966 E0.01696
G1 X74.652 Y82.027 E1.07460
G1 X74.652 Y81.490 E0.01696
G1 X51.128 Y57.966 E1.05061
G1 X51.665 Y57.966 E0.01696
G1 X74.652 Y80.953 E1.02662
G1 X74.652 Y80.416 E0.01696
G1 X52.202 Y57.966 E1.00263
G1 X52.739 Y57.966 E0.01696
G1 X74.652 Y79.878 E0.97865
G1 X74.652 Y79.341 E0.01696
G1 X53.276 Y57.966 E0.95466
G1 X53.813 Y57.966 E0.01696
G1 X74.652 Y78.804 E0.93067
G1 X74.652 Y78.267 E0.01696
G1 X54.350 Y57.966 E0.90668
G1 X54.888 Y57.966 E0.01696
G1 X74.652 Y77.730 E0.88270
G1 X74.652 Y77.193 E0.01696
G1 X55.425 Y57.966 E0.85871
G1 X55.962 Y57.966 E0.01696
G1 X74.652 Y76.656 E0.83472
G1 X74.652 Y76.119 E0.01696
G1 X56.499 Y57.966 E0.81073
G1 X57.036 Y57.966 E0.01696
G1 X74.652 Y75.582 E0.78675
G1 X74.652 Y75.045 E0.01696
G1 X57.573 Y57.966 E0.76276
G1 X58.110 Y57.966 E0.01696
G1 X74.652 Y74.507 E0.73877
G1 X74.652 Y73.970 E0.01696
G1 X58.647 Y57.966 E0.71478
G1 X59.184 Y57.966 E0.01696
G1 X74.652 Y73.433 E0.69079
G1 X74.652 Y72.896 E0.01696
G1 X59.722 Y57.966 E0.66681
G1 X60.259 Y57.966 E0.01696
G1 X74.652 Y72.359 E0.64282
G1 X74.652 Y71.822 E0.01696
G1 X60.796 Y57.966 E0.61883
G1 X61.333 Y57.966 E0.01696
G1 X74.652 Y71.285 E0.59484
G1 X74.652 Y70.748 E0.01696
G1 X61.870 Y57.966 E0.57086
G1 X62.407 Y57.966 E0.01696
G1 X74.652 Y70.211 E0.54687
G1 X74.652 Y69.673 E0.01696
G1 X62.944 Y57.966 E0.52288
G1 X63.481 Y57.966 E0.01696
G1 X74.652 Y69.136 E0.49889
G1 X74.652 Y68.599 E0.01696
G1 X64.018 Y57.966 E0.47491
G1 X64.555 Y57.966 E0.01696
G1 X74.652 Y68.062 E0.45092
G1 X74.652 Y67.525 E0.01696
G1 X65.093 Y57.966 E0.42693
G1 X65.630 Y57.966 E0.01696
G1 X74.652 Y66.988 E0.40294
G1 X74.652 Y66.451 E0.01696
G1 X66.167 Y57.966 E0.37896
G1 X66.704 Y57.966 E0.01696
G1 X74.652 Y65.914 E0.35497
G1 X74.652 Y65.377 E0.01696
G1 X67.241 Y57.966 E0.33098
G1 X67.778 Y57.966 E0.01696
G1 X74.652 Y64.839 E0.30699
G1 X74.652 Y64.302 E0.01696
G1 X68.315 Y57.966 E0.28301
G1 X68.852 Y57.966 E0.01696
G1 X74.652 Y63.765 E0.25902
G1 X74.652 Y63.228 E0.01696
G1 X69.389 Y57.966 E0.23503
G1 X69.927 Y57.966 E0.01696
G1 X74.652 Y62.691 E0.21104
G1 X74.652 Y62.154 E0.01696
G1 X70.464 Y57.966 E0.18706
G1 X71.001 Y57.966 E0.01696
G1 X74.652 Y61.617 E0.16307
G1 X74.652 Y61.080 E0.01696
G1 X71.538 Y57.966 E0.13908
G1 X72.075 Y57.966 E0.01696
G1 X74.652 Y60.543 E0.11509
G1 X74.652 Y60.006 E0.01696
G1 X72.612 Y57.966 E0.09111
G1 X73.149 Y57.966 E0.01696
G1 X74.652 Y59.468 E0.06712
G1 X74.652 Y58.931 E0.01696
G1 X73.686 Y57.966 E0.04313
G1 X74.223 Y57.966 E0.01696
G1 X74.822 Y58.564 E0.02672
G1 E-3.50000 F3600.00000
G1 F7200
G1 X74.223 Y57.966 E-0.40194
G1 X73.686 Y57.966 E-0.25513
G1 X74.652 Y58.931 E-0.64875
G1 X74.652 Y59.182 E-0.11919
G1 E-0.07500 F3600.00000
G1 X115.784 Y54.355 F9000.000
G1 E5.00000 F2400.00000
G1 F1200
G1 X155.347 Y54.355 E1.24048
G1 X155.347 Y93.918 E1.24048
G1 X115.784 Y93.918 E1.24048
G1 X115.784 Y54.415 E1.23860
G1 X115.406 Y53.978 F9000.000
G1 F1200
G1 X155.724 Y53.978 E1.26413
G1 X155.724 Y94.295 E1.26413
G1 X115.406 Y94.295 E1.26413
G1 X115.406 Y54.038 E1.26225
G1 X115.029 Y53.601 F9000.000
G1 F1200
G1 X156.101 Y53.601 E1.28777
G1 X156.101 Y94.672 E1.28777
G1 X115.029 Y94.672 E1.28777
G1 X115.029 Y53.661 E1.28589
G1 X114.652 Y53.224 F9000.000
G1 F1200
G1 X156.478 Y53.224 E1.31142
G1 X156.478 Y95.049 E1.31142
G1 X114.652 Y95.049 E1.31142
G1 X114.652 Y53.284 E1.30954
G1 X114.275 Y52.847 F9000.000
G1 F1200
G1 X156.855 Y52.847 E1.33507
G1 X156.855 Y95.427 E1.33507
G1 X114.275 Y95.427 E1.33507
G1 X114.275 Y52.907 E1.33318
G1 X114.662 Y52.950 F9000.000
G1 E-3.50000 F3600.00000
G1 F7200
G1 X117.275 Y52.902 E-1.42500
G1 E-0.07500 F3600.00000
G1 X115.897 Y93.039 F9000.000
G1 E5.00000 F2400.00000
G1 F1200
G1 X116.493 Y93.635 E0.02656
G1 X117.029 Y93.635 E0.01687
G1 X116.066 Y92.673 E0.04287
G1 X116.066 Y92.137 E0.01687
G1 X117.564 Y93.635 E0.06673
G1 X118.100 Y93.635 E0.01687
G1 X116.066 Y91.602 E0.09059
G1 X116.066 Y91.066 E0.01687
G1 X118.636 Y93.635 E0.11446
G1 X119.171 Y93.635 E0.01687
G1 X116.066 Y90.530 E0.13832
G1 X116.066 Y89.995 E0.01687
G1 X119.707 Y93.635 E0.16218
G1 X120.243 Y93.635 E0.01687
G1 X116.066 Y89.459 E0.18604
G1 X116.066 Y88.923 E0.01687
G1 X120.779 Y93.635 E0.20991
G1 X121.314 Y93.635 E0.01687
G1 X116.066 Y88.387 E0.23377
G1 X116.066 Y87.852 E0.01687
G1 X121.850 Y93.635 E0.25763
G1 X122.386 Y93.635 E0.01687
G1 X116.066 Y87.316 E0.28150
G1 X116.066 Y86.780 E0.01687
G1 X122.921 Y93.635 E0.30536
G1 X123.457 Y93.635 E0.01687
G1 X116.066 Y86.245 E0.32922
G1 X116.066 Y85.709 E0.01687
G1 X123.993 Y93.635 E0.35309
G1 X124.529 Y93.635 E0.01687
G1 X116.066 Y85.173 E0.37695
G1 X116.066 Y84.637 E0.01687
G1 X125.064 Y93.635 E0.40081
G1 X125.600 Y93.635 E0.01687
G1 X116.066 Y84.102 E0.42467
G1 X116.066 Y83.566 E0.01687
G1 X126.136 Y93.635 E0.44854
G1 X126.671 Y93.635 E0.01687
G1 X116.066 Y83.030 E0.47240
G1 X116.066 Y82.495 E0.01687
G1 X127.207 Y93.635 E0.49626
G1 X127.743 Y93.635 E0.01687
G1 X116.066 Y81.959 E0.52013
G1 X116.066 Y81.423 E0.01687
G1 X128.279 Y93.635 E0.54399
G1 X128.814 Y93.635 E0.01687
G1 X116.066 Y80.887 E0.56785
G1 X116.066 Y80.352 E0.01687
G1 X129.350 Y93.635 E0.59172
G1 X129.886 Y93.635 E0.01687
G1 X116.066 Y79.816 E0.61558
G1 X116.066 Y79.280 E0.01687
G1 X130.421 Y93.635 E0.63944
G1 X130.957 Y93.635 E0.01687
G1 X116.066 Y78.745 E0.66331
G1 X116.066 Y78.209 E0.01687
G1 X131.493 Y93.635 E0.68717
G1 X132.029 Y93.635 E0.01687
G1 X116.066 Y77.673 E0.71103
G1 X116.066 Y77.137 E0.01687
G1 X132.564 Y93.635 E0.73489
G1 X133.100 Y93.635 E0.01687
G1 X116.066 Y76.602 E0.75876
G1 X116.066 Y76.066 E0.01687
G1 X133.636 Y93.635 E0.78262
G1 X134.171 Y93.635 E0.01687
G1 X116.066 Y75.530 E0.80648
G1 X116.066 Y74.995 E0.01687
G1 X134.707 Y93.635 E0.83035
G1 X135.243 Y93.635 E0.01687
G1 X116.066 Y74.459 E0.85421
G1 X116.066 Y73.923 E0.01687
G1 X135.779 Y93.635 E0.87807
G1 X136.314 Y93.635 E0.01687
G1 X116.066 Y73.387 E0.90194
G1 X116.066 Y72.852 E0.01687
G1 X136.850 Y93.635 E0.92580
G1 X137.386 Y93.635 E0.01687
G1 X116.066 Y72.316 E0.94966
G1 X116.066 Y71.780 E0.01687
G1 X137.921 Y93.635 E0.97352
G1 X138.457 Y93.635 E0.01687
G1 X116.066 Y71.245 E0.99739
G1 X116.066 Y70.709 E0.01687
G1 X138.993 Y93.635 E1.02125
G1 X139.529 Y93.635 E0.01687
G1 X116.066 Y70.173 E1.04511
G1 X116.066 Y69.637 E0.01687
G1 X140.064 Y93.635 E1.06898
G1 X140.600 Y93.635 E0.01687
G1 X116.066 Y69.102 E1.09284
G1 X116.066 Y68.566 E0.01687
G1 X141.136 Y93.635 E1.11670
G1 X141.671 Y93.635 E0.01687
G1 X116.066 Y68.030 E1.14057
G1 X116.066 Y67.495 E0.01687
G1 X142.207 Y93.635 E1.16443
G1 X142.743 Y93.635 E0.01687
G1 X116.066 Y66.959 E1.18829
G1 X116.066 Y66.423 E0.01687
G1 X143.278 Y93.635 E1.21215
G1 X143.814 Y93.635 E0.01687
G1 X116.066 Y65.888 E1.23602
G1 X116.066 Y65.352 E0.01687
G1 X144.350 Y93.635 E1.25988
G1 X144.886 Y93.635 E0.01687
G1 X116.066 Y64.816 E1.28374
G1 X116.066 Y64.280 E0.01687
