; generated by PrusaSlicer 2.1.1 on 2022-06-01 at 11:25:58 UTC

; 

; external perimeters extrusion width = 0.45mm
; perimeters extrusion width = 0.45mm
; infill extrusion width = 0.45mm
; solid infill extrusion width = 0.45mm
; top infill extrusion width = 0.40mm
; first layer extrusion width = 0.42mm

M201 X500 Y500 Z100 E5000 ; sets maximum accelerations, mm/sec^2
M203 X500 Y500 Z10 E60 ; sets maximum feedrates, mm/sec
M204 P500 R1000 T500 ; sets acceleration (P, T) and retract acceleration (R), mm/sec^2
M205 X8.00 Y8.00 Z0.40 E5.00 ; sets the jerk limits, mm/sec
M205 S0 T0 ; sets the minimum extruding and travel feed rate, mm/sec
M107
G90 ; use absolute coordinates
M83 ; extruder relative mode
M104 S250 ; set extruder temp
M140 S70 ; set bed temp
M190 S70 ; wait for bed temp
M109 S250 ; wait for extruder temp
G28 ; home all
G1 Z2 F240
G1 X2 Y10 F3000
G1 Z0.28 F240
G92 E0.0
G1 Y190 E15.0 F1500.0 ; intro line
G1 X2.3 F5000
G1 Y10 E30 F1200.0 ; intro line
G92 E0.0
G21 ; set units to millimeters
G90 ; use absolute coordinates
M83 ; use relative distances for extrusion
; Filament gcode
;BEFORE_LAYER_CHANGE
;0.2


G1 E-5.00000 F3600.00000
G1 Z0.200 F9000.000
;AFTER_LAYER_CHANGE
;0.2
G1 X163.273 Y57.965
G1 E5.00000 F2400.00000
G1 F1200
G1 X163.588 Y58.975 E0.03317
G1 X169.444 Y127.647 E2.16100
G1 X169.451 Y172.898 E1.41879
G1 X169.391 Y173.436 E0.01698
G1 X169.233 Y173.958 E0.01712
G1 X168.981 Y174.443 E0.01712
G1 X168.643 Y174.872 E0.01712
G1 X168.205 Y175.251 E0.01818
G1 X167.697 Y175.539 E0.01831
G1 X167.146 Y175.719 E0.01818
G1 X166.566 Y175.789 E0.01831
G1 X121.343 Y175.785 E1.41794
G1 X56.049 Y169.307 E2.05730
G1 X55.130 Y169.052 E0.02990
G1 X54.341 Y168.517 E0.02990
G1 X53.743 Y167.716 E0.03134
G1 X53.447 Y166.761 E0.03134
G1 X45.520 Y101.187 E2.07100
G1 X45.513 Y60.918 E1.26261
G1 X45.573 Y60.379 E0.01698
G1 X45.732 Y59.857 E0.01712
G1 X45.983 Y59.377 E0.01698
G1 X46.320 Y58.948 E0.01712
G1 X46.748 Y58.576 E0.01778
G1 X47.244 Y58.291 E0.01791
G1 X47.784 Y58.108 E0.01791
G1 X48.346 Y58.032 E0.01778
G1 X115.604 Y56.391 E2.10944
G1 X160.671 Y56.390 E1.41306
G1 X161.712 Y56.582 E0.03317
G1 X162.617 Y57.129 E0.03317
G1 X163.236 Y57.918 E0.03142
G1 X162.941 Y58.144 F9000.000
G1 F1200
G1 X163.215 Y59.031 E0.02912
G1 X169.069 Y127.680 E2.16025
G1 X169.074 Y172.886 E1.41741
G1 X168.884 Y173.815 E0.02973
G1 X168.367 Y174.615 E0.02985
G1 X167.984 Y174.945 E0.01586
G1 X167.540 Y175.196 E0.01598
G1 X167.056 Y175.353 E0.01598
G1 X166.550 Y175.412 E0.01598
G1 X121.366 Y175.408 E1.41670
G1 X56.092 Y168.932 E2.05667
G1 X55.287 Y168.709 E0.02619
G1 X54.596 Y168.239 E0.02619
G1 X54.077 Y167.541 E0.02729
G1 X53.821 Y166.710 E0.02729
G1 X45.896 Y101.159 E2.07026
G1 X45.890 Y60.929 E1.26137
G1 X46.081 Y60.001 E0.02973
G1 X46.596 Y59.205 E0.02973
G1 X47.402 Y58.634 E0.03095
G1 X48.367 Y58.409 E0.03107
G1 X115.613 Y56.768 E2.10908
G1 X160.671 Y56.767 E1.41278
G1 X161.581 Y56.935 E0.02900
G1 X162.371 Y57.415 E0.02900
G1 X162.904 Y58.097 E0.02712
G1 X162.609 Y58.325 F9000.000
G1 F1200
G1 X162.842 Y59.086 E0.02497
G1 X168.693 Y127.708 E2.15940
G1 X168.697 Y172.876 E1.41620
G1 X168.533 Y173.677 E0.02563
G1 X168.090 Y174.359 E0.02552
G1 X167.381 Y174.854 E0.02709
G1 X166.540 Y175.035 E0.02698
G1 X121.384 Y175.032 E1.41582
G1 X56.134 Y168.557 E2.05591
G1 X55.444 Y168.366 E0.02247
G1 X54.854 Y167.964 E0.02236
G1 X54.412 Y167.369 E0.02326
G1 X54.194 Y166.659 E0.02326
G1 X46.273 Y101.134 E2.06946
G1 X46.267 Y60.940 E1.26025
G1 X46.430 Y60.143 E0.02552
G1 X46.874 Y59.460 E0.02552
G1 X47.559 Y58.976 E0.02631
G1 X48.380 Y58.786 E0.02642
G1 X115.621 Y57.145 E2.10893
G1 X160.671 Y57.144 E1.41250
G1 X161.450 Y57.289 E0.02484
G1 X162.126 Y57.702 E0.02484
G1 X162.572 Y58.277 E0.02283
G1 E-3.50000 F3600.00000
G1 F7200
G1 X162.842 Y59.086 E-0.40499
G1 X163.024 Y61.226 E-1.02001
G1 E-0.07500 F3600.00000
G1 X85.737 Y63.691 F9000.000
G1 E5.00000 F2400.00000
G1 F1200
G1 X85.737 Y98.255 E1.08371
G1 X51.174 Y98.255 E1.08371
G1 X51.174 Y63.691 E1.08371
G1 X85.677 Y63.691 E1.08183
G1 X86.114 Y63.314 F9000.000
G1 F1200
G1 X86.114 Y98.632 E1.10736
G1 X50.797 Y98.632 E1.10736
G1 X50.797 Y63.314 E1.10736
G1 X86.054 Y63.314 E1.10548
G1 X86.491 Y62.937 F9000.000
G1 F1200
G1 X86.491 Y99.009 E1.13100
G1 X50.419 Y99.009 E1.13100
G1 X50.419 Y62.937 E1.13100
G1 X86.431 Y62.937 E1.12912
G1 X86.868 Y62.560 F9000.000
G1 F1200
G1 X86.868 Y99.386 E1.15465
G1 X50.042 Y99.386 E1.15465
G1 X50.042 Y62.560 E1.15465
G1 X86.808 Y62.560 E1.15277
G1 X87.245 Y62.183 F9000.000
G1 F1200
G1 X87.245 Y99.763 E1.17829
G1 X49.665 Y99.763 E1.17829
G1 X49.665 Y62.183 E1.17829
G1 X87.185 Y62.183 E1.17641
G1 X87.142 Y62.569 F9000.000
G1 E-3.50000 F3600.00000
G1 F7200
G1 X87.190 Y65.183 E-1.42500
G1 E-0.07500 F3600.00000
G1 X85.624 Y64.572 F9000.000
G1 E5.00000 F2400.00000
G1 F1200
G1 X85.026 Y63.974 E0.02672
G1 X84.488 Y63.974 E0.01696
G1 X85.454 Y64.940 E0.04313
G1 X85.454 Y65.477 E0.01696
G1 X83.951 Y63.974 E0.06712
G1 X83.414 Y63.974 E0.01696
G1 X85.454 Y66.014 E0.09111
G1 X85.454 Y66.551 E0.01696
G1 X82.877 Y63.974 E0.11509
G1 X82.340 Y63.974 E0.01696
G1 X85.454 Y67.088 E0.13908
G1 X85.454 Y67.625 E0.01696
G1 X81.803 Y63.974 E0.16307
G1 X81.266 Y63.974 E0.01696
G1 X85.454 Y68.162 E0.18706
G1 X85.454 Y68.699 E0.01696
G1 X80.729 Y63.974 E0.21104
G1 X80.192 Y63.974 E0.01696
G1 X85.454 Y69.237 E0.23503
G1 X85.454 Y69.774 E0.01696
G1 X79.654 Y63.974 E0.25902
G1 X79.117 Y63.974 E0.01696
G1 X85.454 Y70.311 E0.28301
G1 X85.454 Y70.848 E0.01696
G1 X78.580 Y63.974 E0.30699
G1 X78.043 Y63.974 E0.01696
G1 X85.454 Y71.385 E0.33098
G1 X85.454 Y71.922 E0.01696
G1 X77.506 Y63.974 E0.35497
G1 X76.969 Y63.974 E0.01696
G1 X85.454 Y72.459 E0.37896
G1 X85.454 Y72.996 E0.01696
G1 X76.432 Y63.974 E0.40294
G1 X75.895 Y63.974 E0.01696
G1 X85.454 Y73.533 E0.42693
G1 X85.454 Y74.071 E0.01696
G1 X75.358 Y63.974 E0.45092
G1 X74.821 Y63.974 E0.01696
G1 X85.454 Y74.608 E0.47491
G1 X85.454 Y75.145 E0.01696
G1 X74.283 Y63.974 E0.49889
G1 X73.746 Y63.974 E0.01696
G1 X85.454 Y75.682 E0.52288
G1 X85.454 Y76.219 E0.01696
G1 X73.209 Y63.974 E0.54687
G1 X72.672 Y63.974 E0.01696
G1 X85.454 Y76.756 E0.57086
G1 X85.454 Y77.293 E0.01696
G1 X72.135 Y63.974 E0.59484
G1 X71.598 Y63.974 E0.01696
G1 X85.454 Y77.830 E0.61883
G1 X85.454 Y78.367 E0.01696
G1 X71.061 Y63.974 E0.64282
G1 X70.524 Y63.974 E0.01696
G1 X85.454 Y78.905 E0.66681
G1 X85.454 Y79.442 E0.01696
G1 X69.987 Y63.974 E0.69079
G1 X69.449 Y63.974 E0.01696
G1 X85.454 Y79.979 E0.71478
G1 X85.454 Y80.516 E0.01696
G1 X68.912 Y63.974 E0.73877
G1 X68.375 Y63.974 E0.01696
G1 X85.454 Y81.053 E0.76276
G1 X85.454 Y81.590 E0.01696
G1 X67.838 Y63.974 E0.78675
G1 X67.301 Y63.974 E0.01696
G1 X85.454 Y82.127 E0.81073
G1 X85.454 Y82.664 E0.01696
G1 X66.764 Y63.974 E0.83472
G1 X66.227 Y63.974 E0.01696
G1 X85.454 Y83.201 E0.85871
G1 X85.454 Y83.738 E0.01696
G1 X65.690 Y63.974 E0.88270
G1 X65.153 Y63.974 E0.01696
G1 X85.454 Y84.276 E0.90668
G1 X85.454 Y84.813 E0.01696
G1 X64.615 Y63.974 E0.93067
G1 X64.078 Y63.974 E0.01696
G1 X85.454 Y85.350 E0.95466
G1 X85.454 Y85.887 E0.01696
G1 X63.541 Y63.974 E0.97865
G1 X63.004 Y63.974 E0.01696
G1 X85.454 Y86.424 E1.00263
G1 X85.454 Y86.961 E0.01696
G1 X62.467 Y63.974 E1.02662
G1 X61.930 Y63.974 E0.01696
G1 X85.454 Y87.498 E1.05061
G1 X85.454 Y88.035 E0.01696
G1 X61.393 Y63.974 E1.07460
G1 X60.856 Y63.974 E0.01696
G1 X85.454 Y88.572 E1.09858
G1 X85.454 Y89.110 E0.01696
G1 X60.319 Y63.974 E1.12257
G1 X59.782 Y63.974 E0.01696
G1 X85.454 Y89.647 E1.14656
G1 X85.454 Y90.184 E0.01696
G1 X59.244 Y63.974 E1.17055
G1 X58.707 Y63.974 E0.01696
G1 X85.454 Y90.721 E1.19453
G1 X85.454 Y91.258 E0.01696
G1 X58.170 Y63.974 E1.21852
G1 X57.633 Y63.974 E0.01696
G1 X85.454 Y91.795 E1.24251
G1 X85.454 Y92.332 E0.01696
G1 X57.096 Y63.974 E1.26650
G1 X56.559 Y63.974 E0.01696
G1 X85.454 Y92.869 E1.29048
G1 X85.454 Y93.406 E0.01696
G1 X56.022 Y63.974 E1.31447
G1 X55.485 Y63.974 E0.01696
G1 X85.454 Y93.944 E1.33846
G1 X85.454 Y94.481 E0.01696
G1 X54.948 Y63.974 E1.36245
G1 X54.410 Y63.974 E0.01696
G1 X85.454 Y95.018 E1.38643
G1 X85.454 Y95.555 E0.01696
G1 X53.873 Y63.974 E1.41042
G1 X53.336 Y63.974 E0.01696
G1 X85.454 Y96.092 E1.43441
G1 X85.454 Y96.629 E0.01696
G1 X52.799 Y63.974 E1.45840
G1 X52.262 Y63.974 E0.01696
G1 X85.454 Y97.166 E1.48238
G1 X85.454 Y97.703 E0.01696
G1 X51.725 Y63.974 E1.50637
G1 X51.456 Y63.974 E0.00848
G1 X51.456 Y64.243 E0.00848
G1 X85.186 Y97.972 E1.50637
G1 X84.648 Y97.972 E0.01696
G1 X51.456 Y64.780 E1.48238
G1 X51.456 Y65.317 E0.01696
G1 X84.111 Y97.972 E1.45839
G1 X83.574 Y97.972 E0.01696
G1 X51.456 Y65.854 E1.43440
G1 X51.456 Y66.391 E0.01696
G1 X83.037 Y97.972 E1.41042
G1 X82.500 Y97.972 E0.01696
G1 X51.456 Y66.928 E1.38643
G1 X51.456 Y67.465 E0.01696
G1 X81.963 Y97.972 E1.36244
G1 X81.426 Y97.972 E0.01696
G1 X51.456 Y68.002 E1.33845
G1 X51.456 Y68.539 E0.01696
G1 X80.889 Y97.972 E1.31447
G1 X80.352 Y97.972 E0.01696
G1 X51.456 Y69.077 E1.29048
G1 X51.456 Y69.614 E0.01696
G1 X79.815 Y97.972 E1.26649
G1 X79.277 Y97.972 E0.01696
G1 X51.456 Y70.151 E1.24250
G1 X51.456 Y70.688 E0.01696
G1 X78.740 Y97.972 E1.21852
G1 X78.203 Y97.972 E0.01696
G1 X51.456 Y71.225 E1.19453
G1 X51.456 Y71.762 E0.01696
G1 X77.666 Y97.972 E1.17054
G1 X77.129 Y97.972 E0.01696
G1 X51.456 Y72.299 E1.14655
G1 X51.456 Y72.836 E0.01696
G1 X76.592 Y97.972 E1.12257
G1 X76.055 Y97.972 E0.01696
G1 X51.456 Y73.373 E1.09858
G1 X51.456 Y73.911 E0.01696
G1 X75.518 Y97.972 E1.07459
G1 X74.981 Y97.972 E0.01696
G1 X51.456 Y74.448 E1.05060
G1 X51.456 Y74.985 E0.01696
G1 X74.443 Y97.972 E1.02662
G1 X73.906 Y97.972 E0.01696
G1 X51.456 Y75.522 E1.00263
G1 X51.456 Y76.059 E0.01696
G1 X73.369 Y97.972 E0.97864
G1 X72.832 Y97.972 E0.01696
G1 X51.456 Y76.596 E0.95465
G1 X51.456 Y77.133 E0.01696
G1 X72.295 Y97.972 E0.93067
G1 X71.758 Y97.972 E0.01696
G1 X51.456 Y77.670 E0.90668
G1 X51.456 Y78.207 E0.01696
G1 X71.221 Y97.972 E0.88269
G1 X70.684 Y97.972 E0.01696
G1 X51.456 Y78.744 E0.85870
G1 X51.456 Y79.282 E0.01696
G1 X70.147 Y97.972 E0.83472
G1 X69.609 Y97.972 E0.01696
G1 X51.456 Y79.819 E0.81073
G1 X51.456 Y80.356 E0.01696
G1 X69.072 Y97.972 E0.78674
G1 X68.535 Y97.972 E0.01696
G1 X51.456 Y80.893 E0.76275
G1 X51.456 Y81.430 E0.01696
G1 X67.998 Y97.972 E0.73877
G1 X67.461 Y97.972 E0.01696
G1 X51.456 Y81.967 E0.71478
G1 X51.456 Y82.504 E0.01696
G1 X66.924 Y97.972 E0.69079
G1 X66.387 Y97.972 E0.01696
G1 X51.456 Y83.041 E0.66680
G1 X51.456 Y83.578 E0.01696
G1 X65.850 Y97.972 E0.64282
G1 X65.313 Y97.972 E0.01696
G1 X51.456 Y84.116 E0.61883
G1 X51.456 Y84.653 E0.01696
G1 X64.776 Y97.972 E0.59484
G1 X64.238 Y97.972 E0.01696
G1 X51.456 Y85.190 E0.57085
G1 X51.456 Y85.727 E0.01696
G1 X63.701 Y97.972 E0.54687
G1 X63.164 Y97.972 E0.01696
G1 X51.456 Y86.264 E0.52288
G1 X51.456 Y86.801 E0.01696
G1 X62.627 Y97.972 E0.49889
G1 X62.090 Y97.972 E0.01696
G1 X51.456 Y87.338 E0.47490
G1 X51.456 Y87.875 E0.01696
G1 X61.553 Y97.972 E0.45092
G1 X61.016 Y97.972 E0.01696
G1 X51.456 Y88.412 E0.42693
G1 X51.456 Y88.950 E0.01696
G1 X60.479 Y97.972 E0.40294
G1 X59.942 Y97.972 E0.01696
G1 X51.456 Y89.487 E0.37895
G1 X51.456 Y90.024 E0.01696
G1 X59.404 Y97.972 E0.35497
G1 X58.867 Y97.972 E0.01696
G1 X51.456 Y90.561 E0.33098
G1 X51.456 Y91.098 E0.01696
G1 X58.330 Y97.972 E0.30699
G1 X57.793 Y97.972 E0.01696
G1 X51.456 Y91.635 E0.28300
G1 X51.456 Y92.172 E0.01696
G1 X57.256 Y97.972 E0.25902
G1 X56.719 Y97.972 E0.01696
G1 X51.456 Y92.709 E0.23503
G1 X51.456 Y93.246 E0.01696
G1 X56.182 Y97.972 E0.21104
G1 X55.645 Y97.972 E0.01696
G1 X51.456 Y93.783 E0.18705
G1 X51.456 Y94.321 E0.01696
G1 X55.108 Y97.972 E0.16307
G1 X54.570 Y97.972 E0.01696
G1 X51.456 Y94.858 E0.13908
G1 X51.456 Y95.395 E0.01696
G1 X54.033 Y97.972 E0.11509
G1 X53.496 Y97.972 E0.01696
G1 X51.456 Y95.932 E0.09110
G1 X51.456 Y96.469 E0.01696
G1 X52.959 Y97.972 E0.06711
G1 X52.422 Y97.972 E0.01696
G1 X51.456 Y97.006 E0.04313
G1 X51.456 Y97.543 E0.01696
G1 X52.055 Y98.141 E0.02672
G1 E-3.50000 F3600.00000
G1 F7200
G1 X51.456 Y97.543 E-0.40187
G1 X51.456 Y97.006 E-0.25513
G1 X52.422 Y97.972 E-0.64869
G1 X52.673 Y97.972 E-0.11931
G1 E-0.07500 F3600.00000
G1 X118.386 Y101.614 F9000.000
G1 E5.00000 F2400.00000
G1 F1200
G1 X118.386 Y62.051 E1.24048
G1 X157.949 Y62.051 E1.24048
G1 X157.949 Y101.614 E1.24048
G1 X118.446 Y101.614 E1.23860
G1 X118.008 Y101.992 F9000.000
G1 F1200
G1 X118.008 Y61.674 E1.26413
G1 X158.326 Y61.674 E1.26413
G1 X158.326 Y101.992 E1.26413
G1 X118.068 Y101.992 E1.26225
G1 X117.631 Y102.369 F9000.000
G1 F1200
G1 X117.631 Y61.297 E1.28777
G1 X158.703 Y61.297 E1.28777
G1 X158.703 Y102.369 E1.28777
G1 X117.691 Y102.369 E1.28589
G1 X117.254 Y102.746 F9000.000
G1 F1200
G1 X117.254 Y60.920 E1.31142
G1 X159.080 Y60.920 E1.31142
G1 X159.080 Y102.746 E1.31142
G1 X117.314 Y102.746 E1.30954
G1 X116.877 Y103.123 F9000.000
G1 F1200
G1 X116.877 Y60.543 E1.33507
G1 X159.457 Y60.543 E1.33507
G1 X159.457 Y103.123 E1.33507
G1 X116.937 Y103.123 E1.33318
G1 X116.981 Y102.736 F9000.000
G1 E-3.50000 F3600.00000
G1 F7200
G1 X116.933 Y100.123 E-1.42500
G1 E-0.07500 F3600.00000
G1 X118.499 Y100.735 F9000.000
G1 E5.00000 F2400.00000
G1 F1200
G1 X119.095 Y101.332 E0.02656
G1 X119.631 Y101.332 E0.01687
G1 X118.668 Y100.369 E0.04287
G1 X118.668 Y99.834 E0.01687
G1 X120.166 Y101.332 E0.06673
G1 X120.702 Y101.332 E0.01687
G1 X118.668 Y99.298 E0.09059
G1 X118.668 Y98.762 E0.01687
G1 X121.238 Y101.332 E0.11446
G1 X121.773 Y101.332 E0.01687
G1 X118.668 Y98.227 E0.13832
G1 X118.668 Y97.691 E0.01687
G1 X122.309 Y101.332 E0.16218
G1 X122.845 Y101.332 E0.01687
G1 X118.668 Y97.155 E0.18604
G1 X118.668 Y96.619 E0.01687
G1 X123.381 Y101.332 E0.20991
G1 X123.916 Y101.332 E0.01687
G1 X118.668 Y96.084 E0.23377
G1 X118.668 Y95.548 E0.01687
G1 X124.452 Y101.332 E0.25763
G1 X124.988 Y101.332 E0.01687
G1 X118.668 Y95.012 E0.28150
G1 X118.668 Y94.477 E0.01687
G1 X125.523 Y101.332 E0.30536
G1 X126.059 Y101.332 E0.01687
G1 X118.668 Y93.941 E0.32922
G1 X118.668 Y93.405 E0.01687
G1 X126.595 Y101.332 E0.35309
G1 X127.131 Y101.332 E0.01687
G1 X118.668 Y92.869 E0.37695
G1 X118.668 Y92.334 E0.01687
G1 X127.666 Y101.332 E0.40081
G1 X128.202 Y101.332 E0.01687
G1 X118.668 Y91.798 E0.42467
G1 X118.668 Y91.262 E0.01687
G1 X128.738 Y101.332 E0.44854
G1 X129.273 Y101.332 E0.01687
G1 X118.668 Y90.727 E0.47240
G1 X118.668 Y90.191 E0.01687
G1 X129.809 Y101.332 E0.49626
G1 X130.345 Y101.332 E0.01687
G1 X118.668 Y89.655 E0.52013
G1 X118.668 Y89.119 E0.01687
G1 X130.881 Y101.332 E0.54399
G1 X131.416 Y101.332 E0.01687
G1 X118.668 Y88.584 E0.56785
G1 X118.668 Y88.048 E0.01687
G1 X131.952 Y101.332 E0.59172
G1 X132.488 Y101.332 E0.01687
G1 X118.668 Y87.512 E0.61558
G1 X118.668 Y86.977 E0.01687
G1 X133.023 Y101.332 E0.63944
G1 X133.559 Y101.332 E0.01687
G1 X118.668 Y86.441 E0.66331
G1 X118.668 Y85.905 E0.01687
G1 X134.095 Y101.332 E0.68717
G1 X134.631 Y101.332 E0.01687
G1 X118.668 Y85.369 E0.71103
G1 X118.668 Y84.834 E0.01687
G1 X135.166 Y101.332 E0.73489
G1 X135.702 Y101.332 E0.01687
G1 X118.668 Y84.298 E0.75876
G1 X118.668 Y83.762 E0.01687
G1 X136.238 Y101.332 E0.78262
G1 X136.773 Y101.332 E0.01687
G1 X118.668 Y83.227 E0.80648
G1 X118.668 Y82.691 E0.01687
G1 X137.309 Y101.332 E0.83035
G1 X137.845 Y101.332 E0.01687
G1 X118.668 Y82.155 E0.85421
G1 X118.668 Y81.619 E0.01687
G1 X138.381 Y101.332 E0.87807
G1 X138.916 Y101.332 E0.01687
G1 X118.668 Y81.084 E0.90194
G1 X118.668 Y80.548 E0.01687
G1 X139.452 Y101.332 E0.92580
G1 X139.988 Y101.332 E0.01687
G1 X118.668 Y80.012 E0.94966
G1 X118.668 Y79.477 E0.01687
G1 X140.523 Y101.332 E0.97352
G1 X141.059 Y101.332 E0.01687
G1 X118.668 Y78.941 E0.99739
G1 X118.668 Y78.405 E0.01687
G1 X141.595 Y101.332 E1.02125
G1 X142.130 Y101.332 E0.01687
G1 X118.668 Y77.870 E1.04511
G1 X118.668 Y77.334 E0.01687
G1 X142.666 Y101.332 E1.06898
G1 X143.202 Y101.332 E0.01687
G1 X118.668 Y76.798 E1.09284
G1 X118.668 Y76.262 E0.01687
G1 X143.738 Y101.332 E1.11670
G1 X144.273 Y101.332 E0.01687
G1 X118.668 Y75.727 E1.14057
G1 X118.668 Y75.191 E0.01687
G1 X144.809 Y101.332 E1.16443
G1 X145.345 Y101.332 E0.01687
G1 X118.668 Y74.655 E1.18829
G1 X118.668 Y74.120 E0.01687
G1 X145.880 Y101.332 E1.21215
